gmail.svg

<svg width="40" height="40" viewBox="0 0 40 40" fill="none" xmlns="http://www.w3.org/2000/svg">
<circle cx="20" cy="20" r="20" fill="#862633"/>
<path d="M7.54726 12.7315C7.51651 12.8298 7.5 12.9339 7.5 13.0417V28.2083C7.5 28.2748 7.50628 28.3399 7.51831 28.4031L15.1442 19.3155L7.54726 12.7315Z" fill="#FCF6EA"/>
<path d="M15.9867 20.0457L8.68242 28.75L31.3181 28.75L24.0134 20.0453L19.9998 23.5237L15.9867 20.0457Z" fill="#FCF6EA"/>
<path d="M24.8559 19.3151L32.4818 28.4026C32.4938 28.3396 32.5 28.2746 32.5 28.2083V13.0417C32.5 12.9338 32.4835 12.8296 32.4527 12.7312L24.8559 19.3151Z" fill="#FCF6EA"/>
<path d="M19.9998 22.0596L8.96949 12.5H31.0302L19.9998 22.0596Z" fill="#FCF6EA"/>
</svg>

<svg width="40" height="40" fill="none" xmlns="http://www.w3.org/2000/svg"><circle cx="20" cy="20" r="20" fill="#862633"/><path d="M7.547 12.732c-.03.098-.047.202-.047.31v15.166c0 .067.006.132.018.195l7.626-9.087-7.597-6.584zm8.44 7.314L8.682 28.75h22.636l-7.305-8.705L20 23.524l-4.013-3.478zm8.869-.731l7.626 9.088a1.04 1.04 0 00.018-.195V13.042c0-.108-.017-.212-.047-.31l-7.597 6.583z" fill="#FCF6EA"/><path d="M20 22.06L8.97 12.5h22.06L20 22.06z" fill="#FCF6EA"/></svg>
